!!!!SEGMENT: pl-gd--ee-1638--002-014_marenzio-luca--motettorum-pro-festis-totius-anni-in-nativitate-s-ioannis-bapt-puer-qui-natus-est.krn
!!!cenid: 15xx:1017
!!!COM: Marenzio, Luca
!!!COM-rismID: pe30003955
!!!CDT: ~1553-1599/08/22
!!!CNT: Italian
!!!GTL: Motettorum pro festis totius anni
!!!OTL: In nativitate S. Ioannis Bapt./Puer qui natus est
!!!OMV: 014
!!!PDT: 1588
!!!AGN:
!!!SMS-siglum: PL-GD
!!!SMS-shelfmark: Ee 1638
!!!SMS-shelfwork: 002-014 G
!!!SMS-variant:
!!!SMS-altvar:
!!!NIFC-rismSourceID: 990039238
!!!NIFC-islandoraID: pl-gd:57883
!!!URL-pdf-islandora: https://repozytorium.nifc.pl/islandora/object/pl-gd%3A57883/datastream/PDF/view
!!!URL-scan: https://polish.musicsources.pl/pl/lokalizacje/galeria/klocki-introligatorskie/655 @EN{Scan on Polish Music Herritage in Open Access Website} @PL{Skany w portalu Dziedzictwo Muzyki Polskiej w otwartym dostępie}
!!!ONB-nifc: UWAGA: Cantus: s. 623 (lewa), Altus: s. 471 (lewa), Tenor: s. 319 (lewa) Bassus: s. 167 (lewa)
!!!AIN: 1 alto 1 bass 1 soprn 1 tenor
!!!key:
**kern	**text	**kern	**text	**kern	**text	**kern	**text
*part4	*part4	*part3	*part3	*part2	*part2	*part1	*part1
*staff4	*staff4	*staff3	*staff3	*staff2	*staff2	*staff1	*staff1
*I"BASSO	*	*I"TENORE	*	*I"ALTO	*	*I"CANTO	*
*I'B.	*	*I'T.	*	*I'A.	*	*I'C.	*
*Ibass	*	*Itenor	*	*Ialto	*	*Isoprn	*
*ICvox	*	*ICvox	*	*ICvox	*	*ICvox	*
*IG	*	*	*	*	*	*	*
*clefF4	*	*clefC4	*	*clefC3	*	*clefC1	*
*k[]	*	*k[]	*	*k[]	*	*k[]	*
*C:	*	*C:	*	*C:	*	*C:	*
*M2/1	*	*M2/1	*	*M2/1	*	*M2/1	*
*met(C|)	*	*met(C|)	*	*met(C|)	*	*met(C|)	*
=1-	=1-	=1-	=1-	=1-	=1-	=1-	=1-
!LO:TX:a:i:t=In natiuitate S. Ioannis Bapt.	!	!LO:TX:a:i:t=In natiuitate S. Ioannis Bapt.	!	!LO:TX:a:i:t=In natiuitate S. Ioannis Bapt.	!	!LO:TX:a:i:t=In natiuitate S. Ioannis Bapt.	!
2.AA/	Pv-	00A	Pv-	0r	.	0r	.
4BB/	.	.	.	.	.	.	.
2C/	.	.	.	.	.	.	.
2D/	-er	.	.	.	.	.	.
=2-	=2-	=2-	=2-	=2-	=2-	=2-	=2-
2AA/	qui	.	.	0r	.	0r	.
1D	na-	.	.	.	.	.	.
2C/	-tus	.	.	.	.	.	.
=3-	=3-	=3-	=3-	=3-	=3-	=3-	=3-
2BB/	eſt	00G	.	0r	.	0r	.
2.C/	no-	.	.	.	.	.	.
4BB/	.	.	.	.	.	.	.
4C/	.	.	.	.	.	.	.
4D/	.	.	.	.	.	.	.
=4-	=4-	=4-	=4-	=4-	=4-	=4-	=4-
2E\	.	.	.	0r	.	0r	.
4D/	.	.	.	.	.	.	.
4C/	.	.	.	.	.	.	.
1BB	.	.	.	.	.	.	.
=5-	=5-	=5-	=5-	=5-	=5-	=5-	=5-
!LO:SIC:v:t=custos GG	!	!	!	!	!	!	!
0AA	-bis	0A	-er	2.c/	Pv-	00cc	Pv-
.	.	.	.	4d\	.	.	.
.	.	.	.	2e\	.	.	.
.	.	.	.	2f\	-er	.	.
=6-	=6-	=6-	=6-	=6-	=6-	=6-	=6-
0r	.	0r	.	2c/	qui	.	.
.	.	.	.	1f	na-	.	.
.	.	.	.	2e\	-tus	.	.
=7-	=7-	=7-	=7-	=7-	=7-	=7-	=7-
0r	.	0r	.	2d\	eſt	00b	.
.	.	.	.	2.e\	no-	.	.
.	.	.	.	4d\	.	.	.
.	.	.	.	4e\	.	.	.
.	.	.	.	4f\	.	.	.
=8-	=8-	=8-	=8-	=8-	=8-	=8-	=8-
0r	.	1G	pluſ	2g\	.	.	.
.	.	.	.	4f\	.	.	.
.	.	.	.	4e\	.	.	.
!	!	!	!	!LO:SIC:v:t=custos c	!	!	!
.	.	2G/	qua(m)	1d	.	.	.
!	!	!	!	!LO:LB:g=original	!	!	!
.	.	2G/	pro-	.	.	.	.
=9-	=9-	=9-	=9-	=9-	=9-	=9-	=9-
1r	.	2A/	-phe-	4c/	-bis	1cc	-er
.	.	.	.	4d\	.	.	.
.	.	2A/	-ta	4e\	.	.	.
.	.	.	.	4c/	.	.	.
2.GG/	Pu-	2.B\	eſt	1d	.	2g/	qui
.	.	.	.	.	.	1dd\	na-
4AA/	.	4A/	.	.	.	.	.
=10-	=10-	=10-	=10-	=10-	=10-	=10-	=10-
2BB/	.	1G	.	1r	.	.	.
2C/	-er	.	.	.	.	2cc\	-tus
2GG/	qui	1r	.	1G	pluſ-	2b\	eſt
1C/	na-	.	.	.	.	4e/	no-
.	.	.	.	.	.	4d/	.
=11-	=11-	=11-	=11-	=11-	=11-	=11-	=11-
.	.	0r	.	2G/	-qua(m)	4e/	.
.	.	.	.	.	.	4f/	.
2E\	-tus	.	.	2G/	pro-	2.g/	.
1D	eſt	.	.	2A/	-phe-	.	.
.	.	.	.	.	.	8f#X/	.
.	.	.	.	.	.	8e/	.
.	.	.	.	2A/	-ta	2f#X/	.
=12-	=12-	=12-	=12-	=12-	=12-	=12-	=12-
0r	.	2.G/	pu-	2B/	eſt	0g	-bis
.	.	.	.	1d	pu-	.	.
.	.	4A/	.	.	.	.	.
.	.	2B\	.	.	.	.	.
.	.	2c\	-er	2e\	-er	.	.
=13-	=13-	=13-	=13-	=13-	=13-	=13-	=13-
!	!	!LO:SIC:v:t=custos c	!	!	!	!	!
0E	Pu-	2G/	qui	2B/	qui	2re	.
!	!	!LO:LB:g=original	!	!	!	!LO:SIC:v:t=custos g	!
.	.	1c	na-	1e	na-	2g/	pluſ
!	!	!	!	!	!	!LO:LB:g=original	!
.	.	.	.	.	.	2g/	quam
.	.	2B\	-tus	2d\	-tus	2g/	pro-
=14-	=14-	=14-	=14-	=14-	=14-	=14-	=14-
0F	.	2A/	est	2.c/	eſt	2.a\	-phe-
.	.	2.c\	no-	.	.	.	.
.	.	.	.	4B/	.	4b\	.
.	.	.	.	1A	.	2.cc\	.
.	.	4B\	.	.	.	.	.
.	.	4c\	.	.	.	.	.
.	.	4d\	.	.	.	8b\	.
.	.	.	.	.	.	8a\	.
=15-	=15-	=15-	=15-	=15-	=15-	=15-	=15-
0E	-er	2e\	.	0B	no-	2g/	.
.	.	4d\	.	.	.	1a	.
.	.	4c\	.	.	.	.	.
.	.	1B	.	.	.	.	.
.	.	.	.	.	.	2g#X/	-ta
=16-	=16-	=16-	=16-	=16-	=16-	=16-	=16-
2AA/	qui	2A/	-bis	2c/	-bis	1a	eſt
1F	na-	2c\	pluſ	1A	na-	.	.
.	.	2c\	qua(m)	.	.	1r	.
!	!	!	!	!LO:SIC:v:t=custos f	!	!	!
2E\	-tus	2c\	pro-	2e\	-tus	.	.
!	!	!	!	!LO:LB:g=original	!	!	!
=17-	=17-	=17-	=17-	=17-	=17-	=17-	=17-
2D/	eſt	4d\	-phe-	2f\	eſt	1r	.
.	.	4c\	.	.	.	.	.
2.E\	no-	4B\	.	1g	no-	.	.
.	.	4A/	.	.	.	.	.
*	*	*	*	*	*	*	*ij
.	.	2.B\	.	.	.	1gny	pluſ
4D/	.	.	.	.	.	.	.
4E\	.	.	.	2e\	-bis	.	.
4F\	.	4A/	.	.	.	.	.
=18-	=18-	=18-	=18-	=18-	=18-	=18-	=18-
2G\	.	4B\	.	0r	.	2g/	quam
.	.	4G/	.	.	.	.	.
4F\	.	1c	.	.	.	2g/	pro-
!LO:SIC:v:t=custos D	!	!	!	!	!	!	!
4E\	.	.	.	.	.	.	.
1D	.	.	.	.	.	2fny/	-phe-
.	.	2B\	-ta	.	.	2f/	-ta
=19-	=19-	=19-	=19-	=19-	=19-	=19-	=19-
!	!	!LO:SIC:v:t=custos A	!	!	!	!	!
2C/	-bis	2c\	eſt	0r	.	4e/	eſt
!	!	!LO:LB:g=original	!	!	!	!	!
*	*	*	*	*	*	*	*Xij
.	.	.	.	.	.	4d/	.
2F\	pluſ	2A/	pluſ	.	.	4c/	.
.	.	.	.	.	.	4B/	.
2F\	qua(m)	2A/	qua(m)	.	.	1c	.
2F\	pro-	2A/	pro-	.	.	.	.
=20-	=20-	=20-	=20-	=20-	=20-	=20-	=20-
!	!	!	!	!	!	!LO:SIC:v:t=custos a	!
2G\	-phe-	2B\	-phe-	1r	.	1r	.
!	!	!	!	!	!	!LO:LB:g=original	!
2G\	-ta	2B\	-ta	.	.	.	.
1A	eſt	2c\	eſt	2.c/	Pu-	2.a\	Pu-
.	.	1A\	hic	.	.	.	.
.	.	.	.	4d\	.	4b\	.
=21-	=21-	=21-	=21-	=21-	=21-	=21-	=21-
0r	.	.	.	2e\	.	2cc\	.
.	.	2D/	est	2f\	-er	2dd\	-er
.	.	1F	e-	2c/	qui	2a\	qui
.	.	.	.	1f\	na-	1dd\	na-
=22-	=22-	=22-	=22-	=22-	=22-	=22-	=22-
0r	.	1.G	-nim	.	.	.	.
.	.	.	.	2e\	-tus	2cc\	-tus
.	.	.	.	2d\	eſt	2b\	eſt
.	.	2c\	de	2.e\	no-	2.cc\	no-
=23-	=23-	=23-	=23-	=23-	=23-	=23-	=23-
0r	.	2c\	quo	.	.	.	.
.	.	.	.	4d\	.	4b\	.
.	.	2A/	ſal-	4e\	.	4cc\	.
.	.	.	.	4f\	.	4dd\	.
.	.	2c\	-ua-	4e\	.	2ee\	.
.	.	.	.	4A/	.	.	.
.	.	2d\	-tor	1a\	.	4dd\	.
.	.	.	.	.	.	4cc\	.
=24-	=24-	=24-	=24-	=24-	=24-	=24-	=24-
1r	.	1e	a-	.	.	1b	.
.	.	.	.	2g#X\	.	.	.
2rGG	.	2A/	-it	4a\	-bis	0a	-bis
.	.	.	.	8gny\	.	.	.
.	.	.	.	8f\	.	.	.
2A\	pluſ	2c\	pluſ	4e\	.	.	.
!	!	!	!	!LO:SIC:v:t=custos e	!	!	!
.	.	.	.	4f\	.	.	.
!	!	!	!	!LO:LB:g=original	!	!	!
=25-	=25-	=25-	=25-	=25-	=25-	=25-	=25-
2A\	qua(m)	2c\	qua(m)	2.e\	.	.	.
2A\	pro-	2c\	pro-	.	.	.	.
.	.	.	.	4f\	.	.	.
2G\	-phe-	2B\	-phe-	1g	.	1r	.
!	!	!LO:SIC:v:t=custos A	!	!	!	!	!
2G\	-ta	2B\	-ta	.	.	.	.
!	!	!LO:LB:g=original	!	!	!	!	!
=26-	=26-	=26-	=26-	=26-	=26-	=26-	=26-
2.F\	eſt	1A	eſt	2rg	.	2re	.
.	.	.	.	2c/	pluſ	2a\	pluſ
4G\	.	.	.	.	.	.	.
*lig	*	*	*	*	*	*	*
1A	.	1r	.	2c/	qua(m)	2a\	qua(m)
.	.	.	.	2c/	pro-	2a\	pro-
=27-	=27-	=27-	=27-	=27-	=27-	=27-	=27-
1G	.	0r	.	2d\	-phe-	2b\	-phe-
!	!	!	!	!	!	!LO:SIC:v:t=custos cc	!
.	.	.	.	2d\	-ta	2b\	-ta
!	!	!	!	!	!	!LO:LB:g=original	!
*Xlig	*	*	*	*	*	*	*
2rGG	.	.	.	1.e	eſt	2.cc\	eſt
1A\	hic	.	.	.	.	.	.
.	.	.	.	.	.	4b\	.
=28-	=28-	=28-	=28-	=28-	=28-	=28-	=28-
.	.	2rF	.	.	.	0a	.
*	*	*	*	*	*ij	*	*
2D/	eſt	1d	hic	2f\	pluſ	.	.
!LO:SIC:v:t=custos G	!	!	!	!	!	!	!
1F	e-	.	.	2f\	qua(m)	.	.
.	.	2A/	eſt	2f\	pro-	.	.
=29-	=29-	=29-	=29-	=29-	=29-	=29-	=29-
1G	-nim	1B	e-	2e\	-phe-	0g	.
.	.	.	.	2d\	-ta	.	.
2rGG	.	2c\	-nim	0e	eſt	.	.
*	*	*	*	*	*Xij	*	*
2C/	de	2G/	de	.	.	.	.
=30-	=30-	=30-	=30-	=30-	=30-	=30-	=30-
2C/	quo	2G/	quo	.	.	2re	.
2AA/	ſal-	2C/	ſal-	.	.	1ee	hic
2C/	-ua-	2E/	-ua-	1r	.	.	.
2D/	-tor	2F/	-tor	.	.	2a\	eſt
=31-	=31-	=31-	=31-	=31-	=31-	=31-	=31-
1E	a-	1G	a-	1e	hic-	1cc	e-
1D	-it	2.F/	-it	1A	-eſt	1dd	-nim
.	.	4G/	.	.	.	.	.
=32-	=32-	=32-	=32-	=32-	=32-	=32-	=32-
2rGG	.	0A	.	1c	e-	2re	.
*	*ij	*	*	*	*	*	*
2F\	de	.	.	.	.	2a\	de
2F\	quo	.	.	1.d	-nim	2a\	quo
2D/	ſal-	.	.	.	.	2f/	ſal-
=33-	=33-	=33-	=33-	=33-	=33-	=33-	=33-
2F\	-ua-	2rF	.	.	.	2a\	-ua-
*	*	*	*ij	*	*	*	*
2G\	-tor	1e	hic	2B/	de	2b\	-tor
0A	a-	.	.	2e\	quo	0cc	a-
.	.	2A/	eſt	2c/	ſal-	.	.
=34-	=34-	=34-	=34-	=34-	=34-	=34-	=34-
.	.	1c	e-	2e\	-ua-	.	.
!	!	!	!	!LO:SIC:v:t=custos g	!	!	!
.	.	.	.	2f\	-tor	.	.
!	!	!	!	!LO:LB:g=original	!	!	!
1G	-it	2d\	-nim	1g	a-	0b	-it
*	*Xij	*	*	*	*	*	*
.	.	2G/	de	.	.	.	.
=35-	=35-	=35-	=35-	=35-	=35-	=35-	=35-
2rGG	.	2G/	quo	2.g\	-it	.	.
!	!	!LO:SIC:v:t=custos c	!	!	!	!	!
1E	hic	2B\	ſal-	.	.	.	.
!	!	!LO:LB:g=original	!	!	!	!	!
.	.	.	.	4f\	.	.	.
.	.	2.c\	-ua-	1e	.	2re	.
*	*	*	*	*	*	*	*ij
2AA/	eſt	.	.	.	.	1a\	hic
.	.	4d\	-tor	.	.	.	.
=36-	=36-	=36-	=36-	=36-	=36-	=36-	=36-
1C	e-	1e	a-	1r	.	.	.
.	.	.	.	.	.	2e/	eſt
1D	-nim	1A	-it	2rg	.	1f	e-
*	*	*	*Xij	*	*	*	*
.	.	.	.	1d\	hic	.	.
=37-	=37-	=37-	=37-	=37-	=37-	=37-	=37-
2rGG	.	1G	de	.	.	2g/	-nim
2E\	de	.	.	2G/	eſt	2g/	de
2E\	quo	2.G/	quo	2B/	e-	2g/	quo
2C/	ſal-	.	.	2c/	-nim	2e/	ſal-
.	.	4c\	Sal-	.	.	.	.
=38-	=38-	=38-	=38-	=38-	=38-	=38-	=38-
1E	-ua-	2B\	-ua-	2rg	.	1g	-ua-
.	.	1e	-tor	2c/	de	.	.
!	!	!	!	!	!	!LO:SIC:v:t=custos g	!
1F	-tor	.	.	2c/	quo-	1a	-tor
!	!	!	!	!	!	!LO:LB:g=original	!
*	*	*lig	*	*	*	*	*
.	.	1d\	a-	2A/	-ſal-	.	.
=39-	=39-	=39-	=39-	=39-	=39-	=39-	=39-
0G	a-	.	.	2B/	-ua-	0g	a-
.	.	1c	.	2c/	-tor	.	.
.	.	.	.	1d	a-	.	.
*	*	*Xlig	*	*	*	*	*
.	.	2B\	.	.	.	.	.
=40-	=40-	=40-	=40-	=40-	=40-	=40-	=40-
0C	-it	0c	-it	0e	-it	0g	-it
*	*	*	*	*	*	*	*Xij
=41-	=41-	=41-	=41-	=41-	=41-	=41-	=41-
0r	.	0r	.	1c	In-	1cc	In-
.	.	.	.	1e	-ter	1cc	-ter
=42-	=42-	=42-	=42-	=42-	=42-	=42-	=42-
0r	.	0r	.	1f	na-	1a	na-
.	.	.	.	2e\	-tos	2g/	-tos
.	.	.	.	2c/	mu-	2e/	mu-
=43-	=43-	=43-	=43-	=43-	=43-	=43-	=43-
1r	.	1r	.	2.d\	-li-	2.f/	-li-
.	.	.	.	4d\	-e-	4f/	-e-
!	!	!	!	!LO:SIC:v:t=custos c	!	!	!
1C	In-	1c	In-	1e	-rum	1g	-rum
!	!	!	!	!LO:LB:g=original	!	!	!
=44-	=44-	=44-	=44-	=44-	=44-	=44-	=44-
1E	-ter	1c	-ter	1r	.	1r	.
1F	na-	1A	na-	1c	In-	1cc	In-
=45-	=45-	=45-	=45-	=45-	=45-	=45-	=45-
2E\	-tos	2G/	-tos	1e	-ter	1cc	-ter
2C/	mu-	2A/	mu-	.	.	.	.
2.D/	-li-	2.F/	-li-	1f	na-	1a	na-
4D/	-e-	4F/	-e-	.	.	.	.
=46-	=46-	=46-	=46-	=46-	=46-	=46-	=46-
1E	-rum	1G	-rum	2e\	-tos	2g/	-tos
.	.	.	.	2c/	mu-	2e/	mu-
1r	.	1r	.	2.d\	-li-	2.f/	-li-
.	.	.	.	4d\	-e-	4f/	-e-
=47-	=47-	=47-	=47-	=47-	=47-	=47-	=47-
0r	.	0r	.	1e	-rum	1g	-rum
.	.	.	.	2.f\	non	2.a\	non
.	.	.	.	4g\	ſur-	4b\	ſur-
=48-	=48-	=48-	=48-	=48-	=48-	=48-	=48-
!	!	!LO:SIC:v:t=custos d	!	!	!	!	!
1r	.	1r	.	2e\	-re-	2cc#X\	-re-
!	!	!LO:LB:g=original	!	!	!	!	!
.	.	.	.	2d\	-xit	2dd\	-xit
2.D/	non	2.d\	non	1r	.	1r	.
4E\	ſur-	4B\	ſur-	.	.	.	.
=49-	=49-	=49-	=49-	=49-	=49-	=49-	=49-
2F#X\	-re-	2A/	-re-	2.d\	non	2.dd\	non
2G\	-xit	2B\	-xit	.	.	.	.
!	!	!	!	!	!	!LO:SIC:v:t=custos a	!
.	.	.	.	4e\	ſur-	4b\	ſur-
!	!	!	!	!	!	!LO:LB:g=original	!
2D/	ma-	1r	.	2f#X\	-re-	2a\	-re-
!LO:SIC:v:t=custos C	!	!	!	!	!	!	!
2GG/	-ior	.	.	2g\	-xit	2b\	-xit
=50-	=50-	=50-	=50-	=50-	=50-	=50-	=50-
*	*	*	*ij	*	*	*	*
2.C/	non	2.c\	non	1r	.	1r	.
4D/	ſur-	4A/	ſur-	.	.	.	.
*	*	*	*	*	*ij	*	*ij
2E\	-re-	2G/	-re-	2.c/	non	2.ccny\	non
2F\	-xit	2A/	-xit	.	.	.	.
.	.	.	.	4d\	ſur-	4a\	ſur-
=51-	=51-	=51-	=51-	=51-	=51-	=51-	=51-
2rGG	.	2rF	.	2e\	-re-	2g/	-re-
!	!	!	!	!LO:SIC:v:t=custos d	!	!	!
2.D/	non	2.d\	non	2fny\	-xit	2a\	-xit
!	!	!	!	!LO:LB:g=original	!	!	!
*	*	*	*	*	*Xij	*	*Xij
.	.	.	.	2rg	.	2re	.
4E\	ſur-	4B\	ſur-	.	.	.	.
2F#X\	-re-	2A/	-re-	2.d\	non	2.dd\	non
=52-	=52-	=52-	=52-	=52-	=52-	=52-	=52-
2G\	-xit	2B\	-xit	.	.	.	.
*	*	*	*Xij	*	*	*	*
.	.	.	.	4e\	ſur-	4b\	ſur-
2D/	ma-	2.d\	non	2f#X\	-re-	2a\	-re-
0GG	-ior	.	.	1g	-xit	2b\	-xit
.	.	4B\	ſur-	.	.	.	.
.	.	2e\	-re-	.	.	2.cc\	ma-
=53-	=53-	=53-	=53-	=53-	=53-	=53-	=53-
.	.	1d	-xit	1g	ma-	.	.
.	.	.	.	.	.	8b\	.
.	.	.	.	.	.	8a\	.
.	.	.	.	.	.	2b\	.
0C	Io-	2c\	ma-	2e\	-ior	2.cc\	-ior
.	.	1G/	-ior	4c/	Io-	.	.
.	.	.	.	4d\	.	8b\	.
.	.	.	.	.	.	8a\	.
=54-	=54-	=54-	=54-	=54-	=54-	=54-	=54-
.	.	.	.	4e\	.	2g/	.
.	.	.	.	4fny\	.	.	.
.	.	2c\	Io-	2g\	.	2e/	Io-
1F	-an-	1c	-an-	1.f	-an-	1.a	-an-
=55-	=55-	=55-	=55-	=55-	=55-	=55-	=55-
1C	-ne	1c	-ne	.	.	.	.
.	.	.	.	2e\	-ne	1g	-ne
1D	Ba-	2B\	Ba-	1d	Ba-	.	.
!	!	!LO:SIC:v:t=custos G#	!	!	!	!	!
.	.	1A\	-pti-	.	.	2f/	Ba-
!	!	!LO:LB:g=original	!	!	!	!	!
=56-	=56-	=56-	=56-	=56-	=56-	=56-	=56-
0E	-pti-	.	.	2c/	-pti-	0e	-pti-
.	.	4G#X/	.	4B/	.	.	.
.	.	4F#X/	.	4A/	.	.	.
.	.	1G#X	.	1B	.	.	.
=57-	=57-	=57-	=57-	=57-	=57-	=57-	=57-
!	!	!	!	!	!	!LO:SIC:v:t=custos a	!
2AA/	-ſta	1A	-ſta	1c	-ſta	1e	-ſta
!	!	!	!	!	!	!LO:LB:g=original	!
2.A\	non	.	.	.	.	.	.
.	.	1r	.	2.c/	non	2.a\	non
4G\	ſur-	.	.	.	.	.	.
!LO:SIC:v:t=custos E	!	!	!	!	!	!	!
2F\	-re-	.	.	.	.	.	.
.	.	.	.	4d\	ſur-	4b\	ſur-
=58-	=58-	=58-	=58-	=58-	=58-	=58-	=58-
2E\	-xit	2rF	.	2e\	-re-	2cc#X\	-re-
!	!	!	!	!LO:SIC:v:t=custos d	!	!	!
2.D/	non	2.d\	non	2f\	-xit	2dd\	-xit
!	!	!	!	!LO:LB:g=original	!	!	!
.	.	.	.	2rg	.	2re	.
4E\	ſur-	4B\	ſur-	.	.	.	.
2F#X\	-re-	2A/	-re-	2.d\	non	2.dd\	non
=59-	=59-	=59-	=59-	=59-	=59-	=59-	=59-
2G\	-xit	2B\	-xit	.	.	.	.
.	.	.	.	4e\	ſur-	4b\	ſur-
*	*	*	*ij	*	*	*	*
2D/	ma-	2.d\	non	2f#X\	-re-	2a\	-re-
0GG	-ior	.	.	1g	-xit	2b\	-xit
.	.	4B\	ſur-	.	.	.	.
.	.	2e\	-re-	.	.	2.ccny\	ma-
=60-	=60-	=60-	=60-	=60-	=60-	=60-	=60-
.	.	1d	-xit	1g	ma-	.	.
*	*	*	*Xij	*	*	*	*
.	.	.	.	.	.	8b\	.
.	.	.	.	.	.	8a\	.
.	.	.	.	.	.	2b\	.
0C	Io-	2c\	ma-	2e\	-ior	2.cc\	-ior
.	.	1Gny/	-ior	4c/	Io-	.	.
.	.	.	.	4d\	.	8b\	.
.	.	.	.	.	.	8a\	.
=61-	=61-	=61-	=61-	=61-	=61-	=61-	=61-
.	.	.	.	4e\	.	2g/	.
.	.	.	.	4fny\	.	.	.
.	.	2c\	Io-	2g\	.	2e/	Io-
1F	-an-	1c	-an-	1.f	-an-	1.a	-an-
=62-	=62-	=62-	=62-	=62-	=62-	=62-	=62-
1C	-ne	1c	-ne	.	.	.	.
.	.	.	.	2e\	-ne	1g	-ne
1D	Ba-	2B\	Ba-	1d	Ba-	.	.
.	.	1A\	-pti-	.	.	2f/	Ba-
=63-	=63-	=63-	=63-	=63-	=63-	=63-	=63-
0E	-pti-	.	.	2c/	-pti-	0e	-pti-
.	.	4G#X/	.	4B/	.	.	.
.	.	4F#X/	.	4A/	.	.	.
.	.	1G#X	.	1B	.	.	.
=64-	=64-	=64-	=64-	=64-	=64-	=64-	=64-
0AA	-ſta.	0A	-ſta.	0c#X	-ſta.	0e	-ſta.
=-	=-	=-	=-	=-	=-	=-	=-
*-	*-	*-	*-	*-	*-	*-	*-
!!!system-decoration: [(s1,s2,s3,s4)]
!!!ENC: Mateusz Solarz
!!!END: 2022-07-01
!!!ENC: Julit Ruszuk
!!!END: 2022-07-05
